X: 1
T: Hawk Got the Chicken
R: reel
Z: 2010 John Chambers <jc:trillian.mit.edu>
F: http://www.abbamoses.com/fiddledo/hawkgotthechicken.pdf
N: Eck Robertson played this.
M: C|
L: 1/8
K: G
[| "Em"B2(ef) e3(d | Bd)e2 "G"G3 A | Bde2 dBAG | E2D2 G3A |
   "Em"B2(ef) g4 | e2d2 "G"G3A | Bde2 dBAG | E2D2 G3A ||
|| "G"G2[B2G2] BAGA | BGAF G3[G-G,-] | [G2G,2]B(c BA)G(D | EG)AE G3[G-G,-] |
   [G2G,2]Bc BAGA | BGAF G3A | Bde2 dBAG | E2D2 [B4G4] ||
|: e2e2 e2e2 | e2d2 B3d | e2ee dBAG | E2D2 G4 :|
W: Old man, old man, get your gun; hawk's got the chicken and away he run.
